public/background/testimonies-mobile.svg

<svg width="393" height="540" preserveAspectRatio="none" viewBox="0 0 393 540" fill="none" xmlns="http://www.w3.org/2000/svg">
    <rect width="393" height="540" fill="#F5F5F5"/>
    <g clip-path="url(#clip0_757_144)">
        <rect width="393" height="887" transform="translate(0 -228)" fill="white"/>
        <path d="M89.5 167.5C89.5 167.5 88.6748 173.05 135.5 141.5L690 524L-77 681L89.5 167.5Z" fill="url(#paint0_linear_757_144)" stroke="white" stroke-miterlimit="10"/>
        <path d="M-13 280.052H97.3542C100.135 280.052 102.389 282.306 102.389 285.087V285.087C102.389 287.867 100.135 290.122 97.3541 290.122H-13V280.052Z" fill="#A3C1F5"/>
        <path d="M73.6087 273.319H11.2207V279.834H73.6087V273.319Z" fill="url(#paint1_linear_757_144)" stroke="white" stroke-miterlimit="10"/>
        <path d="M30.1861 254.354H54.6519C65.1152 254.354 73.6173 262.848 73.6173 273.319H11.2207C11.2207 262.856 19.7142 254.354 30.1861 254.354Z" fill="url(#paint2_linear_757_144)" stroke="white" stroke-miterlimit="10"/>
        <path d="M79.5279 119.476L71.402 114.418C66.4551 120.878 61.4997 127.339 56.5527 133.799C48.6989 144.053 41.7884 153.625 39.468 166.079C36.1955 183.636 37.683 200.879 37.683 218.536V255.927C37.683 255.927 41.8224 259.613 47.5599 255.927V224.031C47.5599 206.619 46.0469 188.472 48.5204 171.19C51.3848 151.203 67.2031 135.554 79.5279 119.468V119.476Z" fill="url(#paint3_linear_757_144)" stroke="white" stroke-miterlimit="10"/>
        <path d="M137.211 137.291C137.211 137.291 124.957 112.681 93.7804 98.4833C93.3509 98.288 92.7319 96.8849 92.4467 96.5023C89.0119 91.8815 83.8542 87.9081 78.2597 86.3351C70.6676 84.1924 64.0721 88.6833 63.2643 96.5572C62.755 101.531 64.409 106.578 66.6792 110.935C67.2562 112.042 69.547 114.608 69.5517 115.742C69.5517 115.742 69.7147 149.244 86.2625 167.509L137.205 137.281L137.211 137.291Z" fill="url(#paint4_linear_757_144)" stroke="white" stroke-miterlimit="10"/>
        <path d="M69.5586 115.761C69.5586 115.761 75.0156 98.4532 93.7806 98.4918C93.7806 98.4918 91.5955 94.4747 87.0534 90.9711C87.0534 90.9711 72.4356 89.4111 64.4291 105.666C64.4291 105.666 65.643 110.899 69.552 115.751L69.5586 115.761Z" fill="url(#paint5_linear_757_144)" stroke="white" stroke-miterlimit="10"/>
        <path d="M117.352 162.569C131.57 154.265 140.396 142.909 137.065 137.206C133.734 131.503 119.508 133.612 105.29 141.917C91.0712 150.221 82.2452 161.577 85.5762 167.28C88.9071 172.983 103.134 170.874 117.352 162.569Z" fill="#D3EDFD" stroke="white" stroke-miterlimit="10"/>
    </g>
    <defs>
        <linearGradient id="paint0_linear_757_144" x1="129" y1="71" x2="243.819" y2="609.956" gradientUnits="userSpaceOnUse">
            <stop stop-color="white"/>
            <stop offset="0.598881" stop-color="#CDEEFC"/>
            <stop offset="1" stop-color="#FFFCFF" stop-opacity="0"/>
        </linearGradient>
        <linearGradient id="paint1_linear_757_144" x1="11.2207" y1="276.577" x2="156.409" y2="279.78" gradientUnits="userSpaceOnUse">
            <stop stop-color="#FFCDF7"/>
            <stop offset="1" stop-color="#0DAEF1"/>
        </linearGradient>
        <linearGradient id="paint2_linear_757_144" x1="11.2207" y1="263.837" x2="133.957" y2="247.939" gradientUnits="userSpaceOnUse">
            <stop stop-color="#FFCDF7"/>
            <stop offset="1" stop-color="#0DAEF1"/>
        </linearGradient>
        <linearGradient id="paint3_linear_757_144" x1="58.4368" y1="114.418" x2="113.691" y2="134.603" gradientUnits="userSpaceOnUse">
            <stop stop-color="#FFCDF7"/>
            <stop offset="1" stop-color="#0DAEF1"/>
        </linearGradient>
        <linearGradient id="paint4_linear_757_144" x1="105.447" y1="92.0389" x2="156.447" y2="217.118" gradientUnits="userSpaceOnUse">
            <stop stop-color="#FFCDF7"/>
            <stop offset="1" stop-color="#0DAEF1"/>
        </linearGradient>
        <linearGradient id="paint5_linear_757_144" x1="76.8032" y1="46.9145" x2="75.9333" y2="117.106" gradientUnits="userSpaceOnUse">
            <stop stop-color="#0DAEF1"/>
            <stop offset="1" stop-color="#FFCDF7"/>
        </linearGradient>
        <clipPath id="clip0_757_144">
            <rect width="393" height="887" fill="white" transform="translate(0 -228)"/>
        </clipPath>
    </defs>
</svg>

<svg xmlns="http://www.w3.org/2000/svg" width="393" height="540" fill="none" preserveAspectRatio="none"><path fill="#F5F5F5" d="M0 0h393v540H0z"/><g clip-path="url(#a)"><path fill="#fff" d="M0-228h393v887H0z"/><path fill="url(#b)" stroke="#fff" stroke-miterlimit="10" d="M89.5 167.5s-.825 5.55 46-26L690 524-77 681z"/><path fill="#A3C1F5" d="M-13 280.052H97.354a5.035 5.035 0 0 1 0 10.07H-13z"/><path fill="url(#c)" stroke="#fff" stroke-miterlimit="10" d="M73.609 273.319H11.22v6.515h62.388z"/><path fill="url(#d)" stroke="#fff" stroke-miterlimit="10" d="M30.186 254.354h24.466c10.463 0 18.965 8.494 18.965 18.965H11.221c0-10.463 8.493-18.965 18.965-18.965Z"/><path fill="url(#e)" stroke="#fff" stroke-miterlimit="10" d="m79.528 119.476-8.126-5.058c-4.947 6.46-9.902 12.921-14.85 19.381-7.853 10.254-14.764 19.826-17.084 32.28-3.273 17.557-1.785 34.8-1.785 52.457v37.391s4.14 3.686 9.877 0v-31.896c0-17.412-1.513-35.559.96-52.841 2.865-19.987 18.683-35.636 31.008-51.722z"/><path fill="url(#f)" stroke="#fff" stroke-miterlimit="10" d="M137.211 137.291s-12.254-24.61-43.43-38.808c-.43-.195-1.05-1.598-1.334-1.98-3.435-4.621-8.593-8.595-14.187-10.168-7.592-2.143-14.188 2.348-14.996 10.222-.509 4.974 1.145 10.021 3.415 14.378.577 1.107 2.868 3.673 2.873 4.807 0 0 .163 33.502 16.71 51.767l50.943-30.228z"/><path fill="url(#g)" stroke="#fff" stroke-miterlimit="10" d="M69.559 115.761s5.457-17.308 24.222-17.27c0 0-2.186-4.016-6.728-7.52 0 0-14.617-1.56-22.624 14.695 0 0 1.214 5.233 5.123 10.085z"/><path fill="#D3EDFD" stroke="#fff" stroke-miterlimit="10" d="M117.352 162.569c14.218-8.304 23.044-19.66 19.713-25.363s-17.557-3.594-31.775 4.711-23.045 19.66-19.714 25.363 17.558 3.594 31.776-4.711Z"/></g><defs><linearGradient id="b" x1="129" x2="243.819" y1="71" y2="609.956" gradientUnits="userSpaceOnUse"><stop stop-color="#fff"/><stop offset=".599" stop-color="#CDEEFC"/><stop offset="1" stop-color="#FFFCFF" stop-opacity="0"/></linearGradient><linearGradient id="c" x1="11.221" x2="156.409" y1="276.577" y2="279.78" gradientUnits="userSpaceOnUse"><stop stop-color="#FFCDF7"/><stop offset="1" stop-color="#0DAEF1"/></linearGradient><linearGradient id="d" x1="11.221" x2="133.957" y1="263.837" y2="247.939" gradientUnits="userSpaceOnUse"><stop stop-color="#FFCDF7"/><stop offset="1" stop-color="#0DAEF1"/></linearGradient><linearGradient id="e" x1="58.437" x2="113.691" y1="114.418" y2="134.603" gradientUnits="userSpaceOnUse"><stop stop-color="#FFCDF7"/><stop offset="1" stop-color="#0DAEF1"/></linearGradient><linearGradient id="f" x1="105.447" x2="156.447" y1="92.039" y2="217.118" gradientUnits="userSpaceOnUse"><stop stop-color="#FFCDF7"/><stop offset="1" stop-color="#0DAEF1"/></linearGradient><linearGradient id="g" x1="76.803" x2="75.933" y1="46.914" y2="117.106" gradientUnits="userSpaceOnUse"><stop stop-color="#0DAEF1"/><stop offset="1" stop-color="#FFCDF7"/></linearGradient><clipPath id="a"><path fill="#fff" d="M0-228h393v887H0z"/></clipPath></defs></svg>
